assets/img/decor-footer.svg

<svg width="468" height="82" viewBox="0 0 468 82" fill="none" xmlns="http://www.w3.org/2000/svg">
<path d="M466.385 9.33838C457.937 3.40609 447.541 0.270671 436.322 0.270671C425.359 0.270671 415.442 3.30713 407.427 8.59359C399.515 3.37484 389.755 0.348796 378.963 0.270671C378.822 0.239421 378.682 0.218587 378.531 0.218587C367.567 0.218587 357.645 3.25504 349.635 8.5415C341.718 3.32796 331.963 0.301921 321.171 0.218587C321.031 0.187338 320.885 0.166504 320.734 0.166504C309.77 0.166504 299.854 3.20296 291.838 8.48942C283.932 3.27588 274.166 0.249837 263.375 0.166504C263.234 0.140463 263.093 0.119629 262.942 0.119629C251.979 0.119629 242.057 3.15609 234.041 8.44255C226.13 3.2238 216.369 0.197754 205.583 0.119629C205.437 0.0883782 205.296 0.0675456 205.145 0.0675456C194.182 0.0675456 184.26 3.104 176.25 8.39046C168.333 3.17692 158.578 0.150879 147.786 0.0675456C147.645 0.0362962 147.505 0.0154622 147.349 0.0154622C136.385 0.0154622 126.468 3.05192 118.453 8.33838C110.552 3.12484 100.781 0.0987956 89.9891 0.0154622C89.8381 0.0154622 89.6975 -0.00537109 89.5464 -0.00537109C78.5829 -0.00537109 68.661 3.03629 60.6454 8.32275C52.635 3.03629 42.7235 -0.00537109 31.7496 -0.00537109C20.536 -0.00537109 10.1402 3.13525 1.68706 9.06755C0.775605 9.71338 0.551646 10.9634 1.20269 11.88C1.84852 12.7915 3.10373 13.0103 4.02561 12.3644C11.7912 6.9165 21.3746 4.03109 31.7496 4.03109C41.2964 4.03109 49.9683 6.52588 57.1089 10.8905C46.6558 19.2759 40.2391 31.88 40.2391 46.4478C40.2391 68.8332 50.7287 81.1717 60.5881 81.4061C60.6194 81.4061 60.6766 81.4061 60.7079 81.4061C70.5673 81.1613 81.0516 68.8332 81.0516 46.4478C81.0516 31.88 74.6402 19.2759 64.1819 10.8905C71.2235 6.59359 79.7496 4.104 89.1298 4.03109C89.26 4.06234 89.4058 4.07275 89.5568 4.07275C99.0985 4.07275 107.776 6.56234 114.916 10.9321C104.458 19.3175 98.0464 31.9165 98.0464 46.4842C98.0464 68.8748 108.52 81.2134 118.39 81.4426C118.421 81.4426 118.484 81.4426 118.515 81.4426C128.375 81.203 138.859 68.8748 138.859 46.4842C138.859 31.9165 132.447 19.3175 121.989 10.9321C129.031 6.62484 137.552 4.14567 146.937 4.07275C147.067 4.104 147.208 4.11442 147.349 4.11442C156.895 4.11442 165.567 6.604 172.713 10.9738C162.255 19.3592 155.843 31.9582 155.843 46.5259C155.843 68.9165 166.328 81.255 176.187 81.4842C176.218 81.4842 176.276 81.4842 176.307 81.4842C186.166 81.2446 196.656 68.9165 196.656 46.5259C196.656 31.9582 190.239 19.3592 179.786 10.9738C186.828 6.6665 195.349 4.18213 204.718 4.11442C204.854 4.14567 204.994 4.15609 205.135 4.15609C214.682 4.15609 223.354 6.64567 230.494 11.0155C220.041 19.3957 213.625 31.9998 213.625 46.5675C213.625 68.953 224.114 81.2915 233.974 81.5259C234 81.5259 234.062 81.5259 234.093 81.5259C243.953 81.2811 254.437 68.953 254.437 46.5675C254.437 31.9998 248.026 19.3957 237.567 11.0155C244.609 6.70817 253.13 4.2238 262.505 4.15609C262.635 4.18213 262.776 4.19255 262.932 4.19255C272.474 4.19255 281.145 6.68734 288.291 11.0519C277.833 19.4373 271.421 32.0415 271.421 46.6092C271.421 68.9946 281.895 81.3332 291.765 81.5676C291.796 81.5676 291.859 81.5676 291.89 81.5676C301.744 81.3228 312.234 68.9946 312.234 46.6092C312.234 32.0415 305.822 19.4373 295.364 11.0519C302.406 6.74463 310.927 4.26546 320.302 4.19255C320.432 4.2238 320.572 4.23421 320.713 4.23421C330.26 4.23421 338.932 6.7238 346.078 11.0936C335.619 19.479 329.208 32.078 329.208 46.6457C329.208 69.0363 339.682 81.3748 349.552 81.604C349.583 81.604 349.64 81.604 349.671 81.604C359.531 81.3644 370.02 69.0363 370.02 46.6457C370.02 32.078 363.604 19.479 353.151 11.0936C360.192 6.7863 368.713 4.30713 378.083 4.23421C378.213 4.26546 378.359 4.27588 378.5 4.27588C388.046 4.27588 396.718 6.76546 403.859 11.1353C393.406 19.5207 386.989 32.1196 386.989 46.6873C386.989 69.078 397.468 81.4165 407.338 81.6457C407.354 81.6457 407.375 81.6457 407.395 81.6457C407.416 81.6457 407.437 81.6457 407.458 81.6457C417.317 81.4061 427.802 69.078 427.802 46.6873C427.802 32.1196 421.39 19.5207 410.932 11.1353C418.078 6.76546 426.75 4.27588 436.296 4.27588C446.671 4.27588 456.265 7.1613 464.026 12.6092C464.937 13.255 466.203 13.0311 466.854 12.1248C467.52 11.2342 467.307 9.9738 466.385 9.33838ZM76.9996 46.4478C76.9996 67.4998 67.4162 77.2082 60.6871 77.3801C53.8798 77.2082 44.2964 67.4998 44.2964 46.4478C44.2964 32.7446 50.536 20.953 60.6454 13.3019C70.76 20.953 76.9996 32.7446 76.9996 46.4478ZM134.796 46.4946C134.796 67.5519 125.213 77.2603 118.484 77.4269C111.677 77.2603 102.088 67.5519 102.088 46.4946C102.088 32.7967 108.333 20.9998 118.442 13.354C128.557 20.9998 134.796 32.7967 134.796 46.4946ZM192.593 46.5363C192.593 67.5936 183.005 77.2967 176.276 77.4686C169.468 77.2967 159.885 67.5936 159.885 46.5363C159.885 32.8384 166.125 21.0415 176.239 13.3957C186.349 21.0415 192.593 32.8384 192.593 46.5363ZM250.385 46.5884C250.385 67.6457 240.802 77.3488 234.072 77.5207C227.265 77.3488 217.677 67.6457 217.677 46.5884C217.677 32.8853 223.921 21.0936 234.031 13.4478C244.145 21.0936 250.385 32.8748 250.385 46.5884ZM308.192 46.63C308.192 67.6821 298.604 77.3905 291.88 77.5623C285.067 77.3905 275.484 67.6821 275.484 46.63C275.484 32.9269 281.724 21.1353 291.838 13.4842C301.937 21.1353 308.192 32.9269 308.192 46.63ZM365.984 46.6769C365.984 67.7342 356.401 77.4373 349.671 77.6092C342.864 77.4373 333.281 67.7342 333.281 46.6769C333.281 32.979 339.52 21.1821 349.63 13.5363C359.734 21.1821 365.984 32.9686 365.984 46.6769ZM423.781 46.7186C423.781 67.7759 414.197 77.479 407.468 77.6509C400.661 77.479 391.072 67.7759 391.072 46.7186C391.072 33.0155 397.317 21.2238 407.427 13.578C417.531 21.2238 423.781 33.0155 423.781 46.7186Z" fill="white"/>
</svg>

<svg width="468" height="82" fill="none" xmlns="http://www.w3.org/2000/svg"><path d="M466.385 9.338C457.937 3.406 447.541.271 436.322.271c-10.963 0-20.88 3.036-28.895 8.323-7.912-5.22-17.672-8.245-28.464-8.323a1.964 1.964 0 00-.432-.052c-10.964 0-20.886 3.036-28.896 8.322-7.917-5.213-17.672-8.24-28.464-8.322a2.003 2.003 0 00-.437-.052c-10.964 0-20.88 3.036-28.896 8.322-7.906-5.213-17.672-8.24-28.463-8.322a2.35 2.35 0 00-.433-.047c-10.963 0-20.885 3.036-28.901 8.323C226.13 3.223 216.369.198 205.583.12a2.057 2.057 0 00-.438-.052c-10.963 0-20.885 3.036-28.895 8.322-7.917-5.213-17.672-8.24-28.464-8.322a1.973 1.973 0 00-.437-.053c-10.964 0-20.881 3.037-28.896 8.323-7.901-5.213-17.672-8.24-28.464-8.323-.15 0-.291-.02-.443-.02-10.963 0-20.885 3.041-28.9 8.328C52.634 3.036 42.723-.005 31.75-.005c-11.214 0-21.61 3.14-30.063 9.073a2.01 2.01 0 00-.484 2.812 2.025 2.025 0 002.823.484C11.79 6.916 21.375 4.031 31.75 4.031c9.546 0 18.218 2.495 25.359 6.86-10.453 8.385-16.87 20.989-16.87 35.557 0 22.385 10.49 34.724 20.35 34.958h.119c9.86-.245 20.344-12.573 20.344-34.958 0-14.568-6.412-27.172-16.87-35.557C71.223 6.594 79.75 4.104 89.13 4.03c.13.031.276.042.427.042 9.541 0 18.219 2.49 25.359 6.86-10.458 8.384-16.87 20.983-16.87 35.551 0 22.39 10.474 34.73 20.344 34.959h.125c9.86-.24 20.344-12.568 20.344-34.959 0-14.568-6.412-27.167-16.87-35.552 7.042-4.307 15.563-6.786 24.948-6.86.13.032.271.042.412.042 9.546 0 18.218 2.49 25.364 6.86-10.458 8.385-16.87 20.984-16.87 35.552 0 22.39 10.485 34.729 20.344 34.958h.12c9.859-.24 20.349-12.567 20.349-34.958 0-14.568-6.417-27.167-16.87-35.552 7.042-4.308 15.563-6.792 24.932-6.86.136.032.276.042.417.042 9.547 0 18.219 2.49 25.359 6.86-10.453 8.38-16.869 20.984-16.869 35.552 0 22.385 10.489 34.724 20.349 34.958h.119c9.86-.245 20.344-12.573 20.344-34.958 0-14.568-6.411-27.172-16.87-35.553 7.042-4.307 15.563-6.791 24.938-6.859.13.026.271.037.427.037 9.542 0 18.213 2.494 25.359 6.859-10.458 8.385-16.87 20.99-16.87 35.557 0 22.386 10.474 34.724 20.344 34.959h.125c9.854-.245 20.344-12.573 20.344-34.959 0-14.568-6.412-27.172-16.87-35.557 7.042-4.307 15.563-6.787 24.938-6.86.13.032.27.042.411.042 9.547 0 18.219 2.49 25.365 6.86-10.459 8.385-16.87 20.984-16.87 35.552 0 22.39 10.474 34.729 20.344 34.958h.119c9.86-.24 20.349-12.568 20.349-34.958 0-14.568-6.416-27.167-16.869-35.552 7.041-4.308 15.562-6.787 24.932-6.86.13.031.276.042.417.042 9.546 0 18.218 2.49 25.359 6.86-10.453 8.385-16.87 20.984-16.87 35.551 0 22.391 10.479 34.73 20.349 34.959h.12c9.859-.24 20.344-12.568 20.344-34.959 0-14.567-6.412-27.166-16.87-35.552 7.146-4.37 15.818-6.86 25.364-6.86 10.375 0 19.969 2.886 27.73 8.334a2.039 2.039 0 002.828-.484 1.956 1.956 0 00-.469-2.787zM77 46.448c0 21.052-9.584 30.76-16.313 30.932-6.807-.172-16.39-9.88-16.39-30.932 0-13.703 6.239-25.495 16.348-33.146C70.76 20.953 77 32.745 77 46.448zm57.796.047c0 21.057-9.583 30.765-16.312 30.932-6.807-.167-16.396-9.875-16.396-30.932 0-13.698 6.245-25.495 16.354-33.141 10.115 7.646 16.354 19.443 16.354 33.14zm57.797.041c0 21.058-9.588 30.76-16.317 30.933-6.808-.172-16.391-9.875-16.391-30.933 0-13.698 6.24-25.495 16.354-33.14 10.11 7.645 16.354 19.442 16.354 33.14zm57.792.052c0 21.058-9.583 30.76-16.313 30.933-6.807-.172-16.395-9.875-16.395-30.933 0-13.703 6.244-25.494 16.354-33.14 10.114 7.646 16.354 19.427 16.354 33.14zm57.807.042c0 21.052-9.588 30.76-16.312 30.932-6.813-.171-16.396-9.88-16.396-30.932 0-13.703 6.24-25.495 16.354-33.146 10.099 7.651 16.354 19.443 16.354 33.146zm57.792.047c0 21.057-9.583 30.76-16.313 30.932-6.807-.172-16.39-9.875-16.39-30.932 0-13.698 6.239-25.495 16.349-33.14 10.104 7.645 16.354 19.432 16.354 33.14zm57.797.042c0 21.057-9.584 30.76-16.313 30.932-6.807-.172-16.396-9.875-16.396-30.932 0-13.703 6.245-25.495 16.355-33.141 10.104 7.646 16.354 19.438 16.354 33.14z" fill="#fff"/></svg>
